X: 15
T:SCOTTISH DE LOISIA
M:2/4
L:1/8
Q:120
C:trad. Bresse / Jura
K:C
G2ce|g2g2|a2gf|g4|f2ed|c2Bc|1d2d2|d4:|2dfed|c4||
|:f2ed|c2Bc|d2d2|d2c2|f2ed|c2Bc|dfed|c4:|
